app/dist/common/images/tpv-technology-co.svg

<svg height="18" viewBox="0 0 18 18" width="18" xmlns="http://www.w3.org/2000/svg"><path d="m0 0h18v18h-18z" fill="#f0f3fa"/><path d="m3 7v1.27h.6v-.27h.75v3h.65v-3h1v.27h.6v-1.27zm4.7 1v-1h1.68c.82 0 1.5.68 1.5 1.43s-.68 1.43-1.5 1.43h-.73v1.14h-.65v-3zm1.72 0h-.72v1h.7c.44 0 .59-.22.59-.5s-.14-.5-.57-.5zm1.97 0v-1h1.04l.77 1.95.82-1.95h.98v1h-.5l-1.3 3-1.28-3z" fill="#004f99"/></svg>

<!-- by TradingView --><svg width="18" height="18" viewBox="0 0 18 18" xmlns="http://www.w3.org/2000/svg"><path fill="#F0F3FA" d="M0 0h18v18H0z"/><path d="M3 7v1.27h.6V8h.75v3H5V8h1v.27h.6V7H3Zm4.7 1V7h1.68c.82 0 1.5.68 1.5 1.43 0 .75-.68 1.43-1.5 1.43h-.73V11H8V8h-.3Zm1.72 0H8.7v1h.7c.44 0 .59-.22.59-.5S9.85 8 9.42 8Zm1.97 0V7h1.04l.77 1.95.82-1.95H15v1h-.5l-1.3 3-1.28-3h-.53Z" fill="#004F99"/></svg>
